X:1
T:Dung petit mot
T:Dung petit mot
T:Thomas Crecquillon
C:Thomas Crecquillon
%%score [ 1 2 3 4 ]
L:1/8
Q:1/4=80
M:2/2
K:F
V:1 treble nm="Superius" snm="S"
V:2 treble nm="Altus" snm="A"
V:3 treble-8 nm="Tenor" snm="T"
V:4 bass nm="Bass" snm="B"
V:1
 G8 | A4 d4 | c3 B A2 G2 | F3 G AF B2- | B2 A2 B2 d2- | d2 c2 B2 A2 | G4 F4 | z2 A2 B4 | A4 F2 F2 | %9
w: Dung|pe- tit|mot _ _ en|deux _ _ _ let-|||com pris,|fleur de|beaul- té, si-|
w: Et|je mo-|ray _ _ ou|gaig- * * * *|* ne- ray _|_ _ _ _|le pris|à te|ser- vir en|
 G2 B2 A2 c2- | cBAG FEDE | FG A3 G G2- |"^#" G2 F2 G4- |[M:2/4] !fermata!G4 :| %14
w: gne moy ma re-||* * * * que-|* * te,|_|
w: loy- aul- té par-||* * * * fai-|* * te,|_|
[M:2/2] z2 G2 B2 B2 | A2 F2 A2 A2 | G2 G2 B4 | A2 FG AB c2- | cB A4 G2 | A4 z2 A2 | G4 F4 | %21
w: ne com- por-|te ma vi- e's-|tre de- faic-|||te par|ung vil-|
w: |||||||
 G4 z2 G2 | GA Bc de f2- | f2 e4 d2- | dc c2 d4 | z2 d2 d2 d2 | c6 c2 | f3 e d2 c2- | %28
w: lain qui|s'ap- * * * * * pel-|* * le|_ _ re- fus,|si non, je|dis qu'en|a- * mour n'a|
w: |||||||
"^-natural" c2 B2 c4 |: z2 G2 A4 | B4 G4 | z2 G2 GA Bc | d2 e2 f3 e | d2 c2 B2 A2- | AG G4 F2 | %35
w: _ qu'a- bus,|et qui|s'y mect,|n'a pas _ _ _|_ la tes- te|net- * * *||
w: |||||||
[M:2/4] G4 :|[M:2/2] G8 |] %37
w: te,|te.|
w: ||
V:2
 D6 D2 | F4 F4 | z2 F2 F2 E2 | D2 F4 E2 | F4 D4 | F2 F2 B,2 D2- | D2 C2 D4 | z2 F2 G2 F2 | %8
w: Dung pe-|tit mot|en deux let-|||* tres com- *|* * pris,|fleur de _|
w: Et je|mo- ray|ou gaig- *|||* ne ray le|_ _ pris|à te ser-|
 E4 D2 F2- | F2 E2 F4 | z2 F2 F2 F2 | D2 E2 F2 E2 | D4 D4- |[M:2/4] !fermata!D4 :| %14
w: beaul- té, si-|* gne moy,|si- gne moy|ma re- que- *|* te,|_|
w: vir en loy-|* aul- té|en loy- aul-|té par- faic- *|* te,|_|
[M:2/2] D4 G2 G2 | F6 F2 | E2 E2 D3 E | FG A3 G F2 | E2 F2 D3 E | F4 z2 F2 | E4 D4 | E2 C2 E2 E2 | %22
w: ne com- por-|te ma|vi- e's- tre _|_ _ de- * *|faic- * * *|te par|ung vil-|lain qui s'ap- pel-|
w: ||||||||
 D4 z2 A2 | A2 A2 B2 G2 | A4 F2 A2 | A2 G2 A4- | A2 E2 A4- | A2 A2 A4 | G4 E4- |: E2 E2 F4 | %30
w: le, qui|s'ap- pel- le re-|fus, si non,|je dis qu'en|_ a- mour|_ n'a qu'a-|* bus,|_ et qui|
w: ||||||||
 D4 E4- | E2 E2 D3 E | F2 G2 F2 D2 | F4 D2 E2 | D2 C2 D4- |[M:2/4] D4 :|[M:2/2] D8 |] %37
w: s'y mect,|_ n'a pas _|_ la tes- te|net- * *|* * te,|_|te.|
w: |||||||
V:3
 B8 | c4 B4 | A2 A2 c4 | A2 d2 c2 B2 | c4 B3 A | F2 F2 G2 A2 | B2 G2 A2 A2 | B2 A2 G2 d2- | %8
w: Dung|pe- tit|mot en deux|let _ _ _|_ _ _|* tres _ _|_ com- pris, fleur|de beaul- té, si-|
w: Et|je mo-|ray ou gaig-|||* ne- ray le|_ _ pris à|te _ ser- vir|
 d2 c2 d4 | B4 c4- | c2 c2 d4- | d2 c2 d2 B2 | A4 G4- |[M:2/4] !fermata!G4 :|[M:2/2] z2 G2 d4- | %15
w: * gne moy|ma _|_ re- que-||* te,|_|ne com-|
w: _ en loy-|aul- té|_ par- faic-||* te,|_||
 d2 d2 c2 A2 | c2 c2 B3 c | d4 c2 A2 | c4 B4 | A4 z2 c2 | c4 A4 | c4 G2 GA | Bc de f3 e | %23
w: * por- te ma|vi- e's- tre _|_ de _|faic- *|te par|ung vil-|lain qui s'ap- *|* * * * pel- *|
w: ||||||||
 d2 c2 d4 | e4 d4 | z2 d2 f2 f2 | e2 c2 f2 e2 | d2 c2 f3 e | d4 c2 G2- |: G2 c4 d2- | d2 B2 c4 | %31
w: * * le|re- fus,|si non, je|dis- qu'en a- *|mour n'a qu'a- *|* * bus,|_ et qui|_ s'y mect,|
w: ||||||||
 G2 GA Bc d2- | d2 c2 d3 c | B2 A2 B2 c2 | B2 G2 A4 |[M:2/4] G4- :|[M:2/2] G8 |] %37
w: n'a pas _ _ _ _|_ la tes- te|net- * * *||te.||
w: ||||||
V:4
 G,8 | F,4 B,,4 | F,2 F,2 F,2 C,2 | D,3 E, F,2 G,2 | F,4 B,,2 B,2- | B,2 A,2 G,2 F,2 | %6
w: Dung|pe- tit|mot en deux let-|||* * * tres|
w: Et|je mo-|ray ou gaig- *||* ne- ray|_ _ _ _|
"^b" E,4 D,4- | D,4 z4 | A,4 B,4 | G,4 F,4- | F,2 F,2 B,4- | B,2 A,2 F,2 G,2 | D,4 G,4- | %13
w: com- pris,|_|fleur de|beaul- té,|_ si- *|* gne ma re-|que- te,|
w: le pris|_|à te|ser- vir|_ en loy-|* aul- té par-|faic- te,-|
[M:2/4] !fermata!G,4 :|[M:2/2] G,4 G,2 G,2 | D,2 D,2 F,2 F,2 | C,D, E,F, G,4 | D,2 D,2 F,3 G, | %18
w: _|ne com- por-|te ma vi- e's-|tre _ _ _ _|_ de- faic- *|
w: |||||
 A,2 F,2 G,4 | F,6 F,2 | C,4 D,4 | C,2 C,2 C,D,E,F, | G,2 G,2 D,3 E, | F,G, A,2 G,2 B,2 | %24
w: |cte par|ung vil-|lain qui s'ap- * * *|pel- le re- *||
w: ||||||
 A,4 z2 D,2 | F,2 G,2 D,E, F,G, | A,2 A,2 A,2 A,2 | F,8 | G,4 C,4 |:"^#" z2 C,2 F,4 | G,4 C,2 C,2 | %31
w: fus, si|non, je dis _ _ _|qu'en a- mour n'a|qu'a-|* bus,|et qui|s'y mect, n'a|
w: |||||||
 C,D,E,F, G,2 G,2 | F,2 E,2 D,4- | D,2 F,2 G,2 C,2 |"^b" D,2 E,2 D,4 |[M:2/4] G,4 :|[M:2/2] G,8 |] %37
w: pas _ _ _ _ la|tes- te net-|||te,|te.|
w: ||||||

